X:1
T:Title
%%score { ( 1 3 ) | ( 2 4 ) }
L:1/8
M:9/8
K:A
V:1 treble nm="Grand Piano"
V:3 treble 
V:2 bass 
V:4 bass 
V:1
 z3 z3[Q:1/4=100] [CE][Ec][DB] | [CA]3 [EG]3 [DF]AF | [DF]3 [CE]3 z dB | [Ec]3 [CA]3 [EA][DG][CA] | %4
[M:3/4] [EB]6 |[M:3/8] [CE][Ec][DB] |[M:9/8] [CA]3 [EG]3 [DF]A[A,DF] | %7
 [A,DF]3 [A,CE]3 [A,DF][EG][A,EA] | [DB]3- [DB]2 [Fd] [Ec]2 [DB] |[M:3/4] [CA]6 |[M:3/8] [DB]cB | %11
[M:9/8] E3 z A,B, [CE]AB | c3 [CA]3 [FA][^EG][FA] | [Fd]3 [DF]3 [FA][EG][DF] |[M:3/4] [CE]6 | %15
[M:3/8] [CE][=C^D][^CE] |[M:9/8] [Ec]3 [CA]3 ABc |[M:21/16] [=Ge]3 [Fd]3/2- [Fd]3 [Fd]c/-c/B | %18
[M:9/8] A3- A2 c cB[G,DE] |[M:3/4] [A,CA]6 |[M:3/8] E^DE | %21
[M:9/8][K:bass] [A,C]3 [CE]3 z3[K:treble] | G,2 G, z2 G, BcB | [DG]3 [DF]3 z3 | C6 E^DE | %25
 E,2 E, A,2 A,[K:treble] A,-[A,EA][Ec] |[M:21/16] [=Ge]3 [Fd]3/2- [Fd]3 dc/-c/B | %27
[M:9/8] [CA]3- [CA]2 c cBE |[M:3/4] [CA]6 |] %29
V:2
 z3 z3 [A,,A,]2 [A,,E,] | [A,,E,]3 [C,A,]3 [D,A,]2 [D,A,D] | z3 z3 .G,3 | %3
 [A,,A,]3 [A,,A,]3 [C,A,][B,,E,][A,,E,] |[M:3/4] [E,G,]6 |[M:3/8] [A,,A,]2 [A,,E,] | %6
[M:9/8] z3 z3 .[D,A,]3 | A,,3 A,,3 z B,C, | [D,F,]3- [D,F,]2 [B,,F,] [E,G,]2 [E,G,] | %9
[M:3/4] [A,,A,]6 |[M:3/8] z E[E,G,D] |[M:9/8] [E,G,D]3 D-[F,D-][G,D] z E[E,G,E] | %12
 [A,E]3 [A,,A,]3 [D,A,]2 [D,A,] | [D,A,]3 [D,A,]3 [D,A,]2 [D,A,] |[M:3/4] [A,,A,]6 | %15
[M:3/8] [A,,A,]2 [A,,A,] |[M:9/8] [A,,A,]3 [A,,E,]3 [C,A,][E,G,][A,E] | %17
[M:21/16] [C,A,]3 [D,A,]3/2- [D,A,]3 z E/-E/[D,F,D] |[M:9/8] [E,C]3- [E,C]2 [E,A,E] [E,G,D]2 E, | %19
[M:3/4] A,,6 |[M:3/8] C=C^C |[M:9/8] A,,2 A,, A,,2 A,, CDC | E,2 E, D2- [E,D] DED | %23
 E,2 E, E,2 E, [E,G,D][E,C][E,B,] | [A,,E,A,]6 C=C^C | A,,2 A,, A,,2 A,, A,,C,[A,,A,] | %26
[M:21/16] [C,A,]3 [D,A,]3/2- [D,A,]3[K:treble] FE/-E/D | %27
[M:9/8][K:bass] E,2 E, E,2 [E,A,E] [E,G,D]2 [E,G,D] |[M:3/4] [A,,A,]6 |] %29
V:3
 x9 | x9 | z3 z3 .E3 | x9 |[M:3/4] x6 |[M:3/8] x3 |[M:9/8] x9 | x9 | x9 |[M:3/4] x6 |[M:3/8] x3 | %11
[M:9/8] z3 E3 z3 | x9 | x9 |[M:3/4] x6 |[M:3/8] x3 |[M:9/8] z3 z3 .E3 |[M:21/16] x21/2 | %18
[M:9/8] x9 |[M:3/4] x6 |[M:3/8] x3 |[M:9/8][K:bass] E,2 E, A,2 A, E[K:treble]FE | [B,D]3 B3 z3 | %23
 B,2 B, G,2 G, FED | x9 | [A,C]3 [CE]3[K:treble] .[CE]3 |[M:21/16] x21/2 |[M:9/8] x9 |[M:3/4] x6 |] %29
V:4
 x9 | x9 | [A,,A,]3 [A,,A,]3 E,-[E,B,][E,G,E] | x9 |[M:3/4] x6 |[M:3/8] x3 | %6
[M:9/8] [A,,E,]3 [C,A,]3 z FD, | z3 z3 .D,3 | x9 |[M:3/4] x6 |[M:3/8] [E,G,]2 z | %11
[M:9/8] z3 .[E,G,]3 .A,3 | x9 | x9 |[M:3/4] x6 |[M:3/8] x3 |[M:9/8] x9 | %17
[M:21/16] z3/2 z3/2 z3/2 z3 .[D,A,]3 |[M:9/8] x9 |[M:3/4] x6 |[M:3/8] x3 |[M:9/8] x9 | %22
 z3 .[E,G,]3 z3 | x9 | x9 | x9 |[M:21/16] x15/2[K:treble] x3 |[M:9/8][K:bass] x9 |[M:3/4] x6 |] %29

